img/brand/McDonald's.svg

<svg width="80" height="70" viewBox="0 0 80 70" fill="none" xmlns="http://www.w3.org/2000/svg">
<path d="M57.4404 5.26334C64.2757 5.26334 69.8203 34.1145 69.8203 69.7455H79.7946C79.7946 31.3849 69.7323 0.33252 57.411 0.33252C50.3703 0.33252 44.1511 9.6365 40.044 24.2529C35.9369 9.6365 29.7176 0.33252 22.7356 0.33252C10.4143 0.33252 0.381348 31.3556 0.381348 69.7162H10.3557C10.3557 34.0851 15.8416 5.26334 22.6769 5.26334C29.5123 5.26334 35.0568 31.9132 35.0568 64.7853H44.9725C44.9725 31.9132 50.5464 5.26334 57.3817 5.26334" fill="#FFCC00"/>
</svg>

<svg width="80" height="70" viewBox="0 0 80 70" fill="none" xmlns="http://www.w3.org/2000/svg"><path d="M57.44 5.263c6.836 0 12.38 28.852 12.38 64.483h9.975C79.795 31.385 69.732.333 57.41.333c-7.04 0-13.26 9.303-17.367 23.92C35.937 9.636 29.718.333 22.736.333 10.414.333.38 31.356.38 69.716h9.975c0-35.63 5.486-64.453 12.32-64.453 6.836 0 12.38 26.65 12.38 59.522h9.916c0-32.872 5.574-59.522 12.41-59.522" fill="#FC0"/></svg>
